eperusteet-opintopolku-app/v2/public/img/icons/jarjesta.svg

<?xml version="1.0" encoding="UTF-8"?>
<svg width="20px" height="20px" viewBox="0 0 20 20" version="1.1" xmlns="http://www.w3.org/2000/svg" xmlns:xlink="http://www.w3.org/1999/xlink">
    <!-- Generator: sketchtool 58 (101010) - https://sketch.com -->
    <title>AB54D982-3544-48B2-868D-0FF49798EBC8@2x</title>
    <desc>Created with sketchtool.</desc>
    <defs>
        <path d="M4,0 L8,4.5 L5,4.5 L5,15.5 L8,15.5 L4,20 L1.88293825e-13,15.5 L3.06097561,15.5 L3.06097561,4.5 L1.88293825e-13,4.5 L4,0 Z M20,15 L20,17 L10,17 L10,15 L20,15 Z M20,9 L20,11 L10,11 L10,9 L20,9 Z M20,3 L20,5 L10,5 L10,3 L20,3 Z" id="path-1"></path>
    </defs>
    <g id="ASSETIT" stroke="none" stroke-width="1" fill="none" fill-rule="evenodd">
        <g id="ASSETIT---IKONIT" transform="translate(-289.000000, -347.000000)">
            <g id="Ikonit/Järjestä" transform="translate(289.000000, 347.000000)">
                <g>
                    <mask id="mask-2" fill="white">
                        <use xlink:href="#path-1"></use>
                    </mask>
                    <use id="Mask" fill="#000000" fill-rule="nonzero" xlink:href="#path-1"></use>
                    <g id="Värit/Tumma-harmaa" mask="url(#mask-2)" fill="#575757">
                        <rect id="Rectangle" x="0" y="0" width="20" height="20"></rect>
                    </g>
                </g>
            </g>
        </g>
    </g>
</svg>

<svg width="20" height="20" xmlns="http://www.w3.org/2000/svg">
    <path d="M4 0l4 4.5H5v11h3L4 20l-4-4.5h3.061v-11H0L4 0zm16 15v2H10v-2h10zm0-6v2H10V9h10zm0-6v2H10V3h10z"/>
</svg>
